!!!OTL: Bridal March
!!!COM: Wagner, Richard
!!!ODT: unknown
!!!YOR: Real Book of Favorite Classics
!!!YOY: 1999
!!!AST: Occasional
!!!YEC: Brian Luke, 2001
**kern	**harm
*k[b-e-]	*k[b-e-]
*M2/4	*M2/4
*B-:	*B-:
*>A	*>A
=1	=1
4f	I
8.b-	.
16b-	.
=2	=2
4.b-	.
8r	.
=3	=3
4f	.
8.cc	V7
16a	.
=4	=4
4.b-	I
8r	.
=5	=5
4f	.
8.b-	.
16ee-	.
=6	=6
4ee-	IV
8.dd	I
16cc	.
=7	=7
4b-	vi7
8.a	V7/V
16b-	.
=8	=8
4.cc	V7;
8r	.
*>A'	*>A'
=9	=9
4f	I
8.b-	.
16b-	.
=10	=10
4.b-	.
8r	.
=11	=11
4f	.
8.cc	V7
16a	.
=12	=12
4.b-	I
8r	.
=13	=13
4f	.
8.b-	.
16dd	.
=14	=14
4ff	iii
8.dd	vi
16b-	.
=15	=15
4g	ii
8.cc	V7
16dd	.
=16	=16
2b-	I;
*-	*-
